Icons-Moksha-BlueElectric/apps/scalable/system-file-manager-linux-mint-color.svg

<?xml version="1.0" encoding="UTF-8" standalone="no"?>
<svg
   xmlns:dc="http://purl.org/dc/elements/1.1/"
   xmlns:cc="http://creativecommons.org/ns#"
   xmlns:rdf="http://www.w3.org/1999/02/22-rdf-syntax-ns#"
   xmlns:svg="http://www.w3.org/2000/svg"
   xmlns="http://www.w3.org/2000/svg"
   xmlns:sodipodi="http://sodipodi.sourceforge.net/DTD/sodipodi-0.dtd"
   xmlns:inkscape="http://www.inkscape.org/namespaces/inkscape"
   fill="#828eab"
   height="48"
   version="1.1"
   viewBox="0 0 48 48"
   width="48"
   id="svg8"
   sodipodi:docname="system-file-manager-linux-mint-color.svg"
   inkscape:version="0.92.3 (2405546, 2018-03-11)"><metadata
   id="metadata14">
  <rdf:RDF>
    <cc:Work
       rdf:about="">
      <dc:format>image/svg+xml</dc:format>
      <dc:type
         rdf:resource="http://purl.org/dc/dcmitype/StillImage" />
    </cc:Work>
  </rdf:RDF>
</metadata>
<defs
   id="defs12" />
<sodipodi:namedview
   pagecolor="#ffffff"
   bordercolor="#666666"
   borderopacity="1"
   objecttolerance="10"
   gridtolerance="10"
   guidetolerance="10"
   inkscape:pageopacity="0"
   inkscape:pageshadow="2"
   inkscape:window-width="1328"
   inkscape:window-height="737"
   id="namedview10"
   showgrid="false"
   inkscape:zoom="4.9166667"
   inkscape:cx="1.4237288"
   inkscape:cy="24"
   inkscape:window-x="38"
   inkscape:window-y="0"
   inkscape:window-maximized="1"
   inkscape:current-layer="svg8" />
<path
   d="M20 5L16 9 16 13 8 13C5.79 13 4.019531 14.79 4.019531 17L4 39C4 41.21 5.79 43 8 43L40 43C42.21 43 44 41.21 44 39L44 17C44 14.79 42.21 13 40 13L32 13 32 9 28 5 20 5zM20 9L28 9 28 13 20 13 20 9z"
   fill="#828eab"
   id="path2" />
<path
   d="m25.506437 25.303456c-.700771 0-1.323426.260173-1.823719.765554-.500043.505111-.762596 1.135703-.762594 1.847347l0 3.597207 1.631595 0 0-3.597207c0-.272763.089001-.486043.283753-.682774.195393-.19736.402303-.286706.670965-.286706.274292 0 .478098.088896.673918.286706.194754.196731.283756.410011.283756.682774l0 3.597207 1.631593 0 0-3.597207c0-.272763.089002-.486043.283758-.682774.195818-.197809.399624-.286706.673921-.286706.268664 0 .475568.089346.670958.286706.194754.196731.283756.410011.283756.682774l.008867 4.203155c0 .896612-.853858 1.652273-1.950819 1.652273l-5.261297-.020686c-.846524 0-1.569524-.82396-1.569524-1.882839l0-7.915136-1.542919 0 0 8.219577c0 .872095.319121 1.636858.93994 2.255275.530629.523762 1.168784.863277 1.88579.939956l5.858369-.000014c.900225 0 1.691114-.334731 2.329159-.984301l.002961 0c .542651-.557528.859887-1.225569.936983-1.9774l-.005905-4.489861c0-.711644-.262544-1.342237-.762594-1.847347-.500287-.505381-1.122948-.765554-1.823715-.765554-.687862 0-1.289743.255785-1.77643.724164-.485264-.467607-1.082938-.724164-1.770516-.724164z"
   fill="#828eabill-rule="
   id="path4"
   style="fill:#ffffff;fill-opacity:1" />
evenodd&quot; overflow=&quot;visible&quot;/&gt;<path
   d="m23.657356 38.629937c-3.708742 0-6.927207-2.811577-6.927207-6.516995l-.003327-4.499177 0-1.147287-2.35131 0 0-5.716543 9.915534.046696 3.101735.006672c3.712075 0 6.927205 2.80823 6.927205 6.516976l0 11.309657-10.662624 0 0 0 0 0zm9.151772-3.033812c0-2.463786 0-8.275845 0-8.275845 0-2.764861-2.42468-5.006124-5.416353-5.006124l-3.105067 0 0-.006672-8.39802-.036695 0 2.684837c0 0 .337305 0 .940745 0 .638687 0 1.407224.600201 1.407224 1.480977l.006672 5.67303c0 2.764863 2.424692 5.006122 5.413026 5.006122l7.378186 0c .945888 0 1.773586-.599024 1.773586-1.51963z"
   fill="#828eab"
   fill-rule="evenodd"
   overflow="visible"
   id="path6"
   style="fill:#ffffff;fill-opacity:1" />
</svg>

<?xml version="1.0" encoding="UTF-8" standalone="no"?>
<svg
   xmlns:dc="http://purl.org/dc/elements/1.1/"
   xmlns:cc="http://creativecommons.org/ns#"
   xmlns:rdf="http://www.w3.org/1999/02/22-rdf-syntax-ns#"
   xmlns:svg="http://www.w3.org/2000/svg"
   xmlns="http://www.w3.org/2000/svg"
   xmlns:sodipodi="http://sodipodi.sourceforge.net/DTD/sodipodi-0.dtd"
   xmlns:inkscape="http://www.inkscape.org/namespaces/inkscape"
   fill="#828eab"
   height="48"
   version="1.1"
   viewBox="0 0 48 48"
   width="48"
   id="svg8"
   sodipodi:docname="system-file-manager-linux-mint-color.svg"
   inkscape:version="0.92.3 (2405546, 2018-03-11)"><metadata
   id="metadata14">
  <rdf:RDF>
    <cc:Work
       rdf:about="">
      <dc:format>image/svg+xml</dc:format>
      <dc:type
         rdf:resource="http://purl.org/dc/dcmitype/StillImage" />
    </cc:Work>
  </rdf:RDF>
</metadata>
<defs
   id="defs12" />
<sodipodi:namedview
   pagecolor="#ffffff"
   bordercolor="#666666"
   borderopacity="1"
   objecttolerance="10"
   gridtolerance="10"
   guidetolerance="10"
   inkscape:pageopacity="0"
   inkscape:pageshadow="2"
   inkscape:window-width="1328"
   inkscape:window-height="737"
   id="namedview10"
   showgrid="false"
   inkscape:zoom="4.9166667"
   inkscape:cx="-36.101695"
   inkscape:cy="24"
   inkscape:window-x="38"
   inkscape:window-y="0"
   inkscape:window-maximized="1"
   inkscape:current-layer="svg8" />
<path
   d="M 20 5 L 16 9 L 16 13 L 8 13 C 5.79 13 4.0195312 14.79 4.0195312 17 L 4 39 C 4 41.21 5.79 43 8 43 L 40 43 C 42.21 43 44 41.21 44 39 L 44 17 C 44 14.79 42.21 13 40 13 L 32 13 L 32 9 L 28 5 L 20 5 z M 20 9 L 28 9 L 28 13 L 20 13 L 20 9 z M 14.375 20.75 L 24.291016 20.796875 L 27.392578 20.802734 C 31.104653 20.802734 34.320312 23.611567 34.320312 27.320312 L 34.320312 38.630859 L 23.658203 38.630859 C 19.949461 38.630859 16.730469 35.818699 16.730469 32.113281 L 16.726562 27.613281 L 16.726562 26.466797 L 14.375 26.466797 L 14.375 20.75 z M 15.890625 22.271484 L 15.890625 24.955078 L 16.830078 24.955078 C 17.468765 24.955078 18.238281 25.556724 18.238281 26.4375 L 18.244141 32.109375 C 18.244141 34.874238 20.669869 37.115234 23.658203 37.115234 L 31.035156 37.115234 C 31.981044 37.115234 32.808593 36.516309 32.808594 35.595703 L 32.808594 27.320312 C 32.808594 24.555452 30.384251 22.314453 27.392578 22.314453 L 24.287109 22.314453 L 24.287109 22.306641 L 15.890625 22.271484 z "
   id="path2" />
<path
   d="m25.506437 25.303456c-.700771 0-1.323426.260173-1.823719.765554-.500043.505111-.762596 1.135703-.762594 1.847347l0 3.597207 1.631595 0 0-3.597207c0-.272763.089001-.486043.283753-.682774.195393-.19736.402303-.286706.670965-.286706.274292 0 .478098.088896.673918.286706.194754.196731.283756.410011.283756.682774l0 3.597207 1.631593 0 0-3.597207c0-.272763.089002-.486043.283758-.682774.195818-.197809.399624-.286706.673921-.286706.268664 0 .475568.089346.670958.286706.194754.196731.283756.410011.283756.682774l.008867 4.203155c0 .896612-.853858 1.652273-1.950819 1.652273l-5.261297-.020686c-.846524 0-1.569524-.82396-1.569524-1.882839l0-7.915136-1.542919 0 0 8.219577c0 .872095.319121 1.636858.93994 2.255275.530629.523762 1.168784.863277 1.88579.939956l5.858369-.000014c.900225 0 1.691114-.334731 2.329159-.984301l.002961 0c .542651-.557528.859887-1.225569.936983-1.9774l-.005905-4.489861c0-.711644-.262544-1.342237-.762594-1.847347-.500287-.505381-1.122948-.765554-1.823715-.765554-.687862 0-1.289743.255785-1.77643.724164-.485264-.467607-1.082938-.724164-1.770516-.724164z"
   fill="#828eabill-rule="
   id="path4"
   style="fill:#ffffff;fill-opacity:1" />

evenodd&quot; overflow=&quot;visible&quot;/&gt;</svg>
